X: 1602
T: Joe Cashmere's Strathspey
B: australian traditional tunes wiki
M:4/4
L:1/8
R: Schottische
Q: 1/4=100
K:D
V:1 
|:"A"e2e>Ae2 (3efg|"G"d2B>G B>G B>d|"A"e<AA2e>f g>a|"G"g<e d>B"A"A2A2:|
|:"A"e>AA2e>f g>e|"G"d>BG2d>G B>d|"A"e<A A2e>f g>a|"G"(3gfe d>B"A"A2A2:|
||"A"a2a>g e>f g>e|"G"d2B<G B>d B<G|"A"e>a a>g e>g g>a|"G"(3gfe d>B"A"A2A2|
"A"a2a>g e<g g>e|"G"d<B B<G B<G B<d|"A"e<a a>g e<f g>a|"G"(3gfe d>B"A"A2A2||
% abcbook-tune_id 6342d53a88ef9dcab0f4c04f


% abcbook-boost 0
% abcbook-tablature 
% abcbook-transpose 
% abcbook-lastupdated 1665324373361
% abcbook-soundfonts 
% abcbook-repeats 1
% NFF Book 2014

